src/categories-icons-sprite/categories/svg-cat-child-buggy.svg

<svg width="36" height="36" viewBox="0 0 36 36" fill="none" xmlns="http://www.w3.org/2000/svg">
<path class="p-FFA2C1" d="M20.462 0H15.8888L14.4814 12.0195L16.1762 12.3264L20.462 0Z" fill="#65B3E7"/>
<path class="p-B4D2D7" d="M24.596 32.3567L25.5912 30.4968L18.1242 26.501L25.5912 22.5051L24.596 20.6453L15.8888 25.3047L14.4814 26.501L15.8888 27.6972L24.596 32.3567Z" fill="#76B7E2"/>
<path class="p-E1EBF0" d="M6.18652 22.5051L13.6535 26.501L6.18652 30.4968L7.1818 32.3567L15.8889 27.6972V25.3047L7.1818 20.6453L6.18652 22.5051Z" fill="#5FBEFF"/>
<path class="p-09607D" d="M31.7774 13.1835L29.668 14.9419V7.87744H35.9995V9.98682H31.7774V13.1835Z" fill="#76B7E2"/>
<path class="p-3440DB" d="M31.7778 18.0001L14.4814 16.5928L15.8888 23.3338H31.7778V18.0001Z" fill="#4D98CB"/>
<path class="p-2682FF" d="M0 18.0001V23.3338H15.889V16.5928L0 18.0001Z" fill="#58ADE5"/>
<path class="p-FFC9D0" d="M8.35757 0C3.74921 0 0 3.74921 0 8.35757V12.3264L15.889 12.0195V0H8.35757Z" fill="#5FBEFF"/>
<path class="p-3440DB" d="M27.4925 33.1851V31.0757H15.8892L15.1855 32.1304L15.8892 33.1851H27.4925Z" fill="#65B3E7"/>
<path class="p-2682FF" d="M15.8884 31.0757H4.28516V33.1851H15.8884V31.0757Z" fill="#AFD9F6"/>
<path class="p-EFE2DD" d="M31.7778 11.4692H15.8888L14.4814 14.306L15.8888 18H31.7778V11.4692Z" fill="#A1D1FD"/>
<path class="p-FFF5F5" d="M15.889 11.4692H0V18H15.889V11.4692Z" fill="#B9DFFC"/>
<path class="p-09607D" d="M3.86945 28.261C1.73588 28.261 0 29.9968 0 32.1304C0 34.2641 1.73588 35.9999 3.86945 35.9999C6.00301 35.9999 7.73889 34.264 7.73889 32.1304C7.73889 29.9969 6.00308 28.261 3.86945 28.261Z" fill="#76B7E2"/>
<path class="p-04303E" d="M27.9075 28.261C25.7739 28.261 24.0381 29.9969 24.0381 32.1304C24.0381 34.264 25.7739 35.9999 27.9075 35.9999C30.0412 35.9999 31.777 34.264 31.777 32.1304C31.777 29.9969 30.0412 28.261 27.9075 28.261Z" fill="#4D98CB"/>
</svg>

<svg width="36" height="36" fill="none" xmlns="http://www.w3.org/2000/svg"><path class="p-FFA2C1" d="M20.462 0h-4.573L14.48 12.02l1.695.306L20.462 0z" fill="#65B3E7"/><path class="p-B4D2D7" d="M24.596 32.357l.995-1.86-7.467-3.996 7.467-3.996-.995-1.86-8.707 4.66L14.48 26.5l1.408 1.196 8.707 4.66z" fill="#76B7E2"/><path class="p-E1EBF0" d="M6.187 22.505l7.466 3.996-7.466 3.996.995 1.86 8.707-4.66v-2.392l-8.707-4.66-.995 1.86z" fill="#5FBEFF"/><path class="p-09607D" d="M31.777 13.184l-2.109 1.758V7.877h6.331v2.11h-4.222v3.197z" fill="#76B7E2"/><path class="p-3440DB" d="M31.778 18L14.48 16.593l1.408 6.74h15.889V18z" fill="#4D98CB"/><path class="p-2682FF" d="M0 18v5.334h15.889v-6.741L0 18z" fill="#58ADE5"/><path class="p-FFC9D0" d="M8.358 0C3.749 0 0 3.75 0 8.358v3.968l15.889-.306V0H8.358z" fill="#5FBEFF"/><path class="p-3440DB" d="M27.492 33.185v-2.11H15.89l-.704 1.055.704 1.055h11.604z" fill="#65B3E7"/><path class="p-2682FF" d="M15.888 31.076H4.285v2.11h11.603v-2.11z" fill="#AFD9F6"/><path class="p-EFE2DD" d="M31.778 11.47h-15.89l-1.407 2.836L15.89 18h15.889v-6.53z" fill="#A1D1FD"/><path class="p-FFF5F5" d="M15.889 11.47H0V18h15.889v-6.53z" fill="#B9DFFC"/><path class="p-09607D" d="M3.87 28.261A3.874 3.874 0 000 32.131 3.874 3.874 0 003.87 36a3.874 3.874 0 003.869-3.87 3.874 3.874 0 00-3.87-3.869z" fill="#76B7E2"/><path class="p-04303E" d="M27.907 28.261a3.874 3.874 0 00-3.869 3.87A3.874 3.874 0 0027.908 36a3.874 3.874 0 003.869-3.87 3.874 3.874 0 00-3.87-3.869z" fill="#4D98CB"/></svg>
